front/src/Assets/image/payment/Refund_bottom.svg

<svg width="41" height="41" viewBox="0 0 41 41" fill="none" xmlns="http://www.w3.org/2000/svg">
<path d="M27.3334 34.1667L26.6262 34.8739L27.3334 35.581L28.0405 34.8739L27.3334 34.1667ZM7.54169 25.6251C7.54169 26.1774 7.9894 26.6251 8.54169 26.6251C9.09397 26.6251 9.54169 26.1774 9.54169 25.6251L7.54169 25.6251ZM18.0846 26.3322L26.6262 34.8739L28.0405 33.4596L19.4988 24.918L18.0846 26.3322ZM28.0405 34.8739L36.5821 26.3322L35.1679 24.918L26.6262 33.4596L28.0405 34.8739ZM28.3334 34.1667L28.3334 16.2293L26.3334 16.2293L26.3334 34.1667L28.3334 34.1667ZM7.54169 16.2293L7.54169 25.6251L9.54169 25.6251L9.54169 16.2293L7.54169 16.2293ZM17.9375 5.83342C12.1961 5.83342 7.54169 10.4878 7.54169 16.2293L9.54169 16.2293C9.54169 11.5924 13.3006 7.83342 17.9375 7.83342L17.9375 5.83342ZM28.3334 16.2293C28.3334 10.4878 23.679 5.83342 17.9375 5.83342L17.9375 7.83342C22.5744 7.83342 26.3334 11.5924 26.3334 16.2293L28.3334 16.2293Z" fill="#EF9B9B"/>
</svg>

<svg xmlns="http://www.w3.org/2000/svg" fill="none" viewBox="0 0 41 41">
  <path fill="#EF9B9B" d="M27.333 34.167l-.707.707.707.707.708-.707-.708-.707zM7.542 25.625a1 1 0 102 0h-2zm10.543.707l8.541 8.542 1.415-1.414-8.542-8.542-1.414 1.414zm9.956 8.542l8.541-8.542-1.414-1.414-8.542 8.542 1.415 1.414zm.292-.707V16.229h-2v17.938h2zM7.542 16.229v9.396h2V16.23h-2zM17.938 5.833c-5.742 0-10.396 4.655-10.396 10.396h2a8.396 8.396 0 018.396-8.396v-2zM28.332 16.23c0-5.741-4.654-10.396-10.395-10.396v2a8.396 8.396 0 018.395 8.396h2z"/>
</svg>
